packages/core/src/svgs/signa.svg

<svg width="24" height="24" viewBox="0 0 24 24" fill="none" xmlns="http://www.w3.org/2000/svg">
<g clip-path="url(#clip0_31_18804)">
<path d="M0 0H24V24H0V0Z" fill="#008CFF"/>
<path d="M9.3771 13.3886C9.65238 13.1634 9.85441 12.8614 9.95744 12.521C10.0605 12.1806 10.0599 11.8172 9.95567 11.4771C9.88839 11.2521 9.77774 11.0425 9.62995 10.86L9.56567 10.7829C8.78995 9.95571 7.9671 9.16714 7.16567 8.36142L6.83995 8.00999C6.3901 8.40169 5.96095 8.81653 5.55424 9.25285C5.25294 9.6183 5.10782 10.0878 5.15034 10.5595C5.19286 11.0312 5.41959 11.4672 5.78138 11.7729L6.56138 11.0014C6.14138 10.4314 6.20567 10.0243 6.7971 9.61285L8.76852 11.5757C8.79424 11.6143 8.81138 11.6529 8.82853 11.7C8.89627 11.8542 8.91201 12.0262 8.87335 12.1901C8.83469 12.354 8.74374 12.5009 8.61424 12.6086L9.3771 13.3886ZM17.2028 14.3786C16.56 13.7357 15.9042 13.0971 15.2742 12.4414C15.1681 12.3244 15.1113 12.1708 15.1157 12.0129C15.1585 11.7814 15.2314 11.5629 15.3214 11.3529L14.5714 10.6071L14.4985 10.6757C14.1497 11.0259 13.9542 11.5002 13.955 11.9945C13.9558 12.4887 14.1529 12.9624 14.5028 13.3114L14.58 13.3843L17.0657 15.8657C17.1085 15.9086 17.1514 15.9429 17.1942 15.9729C17.5971 15.5743 18.0085 15.2014 18.3814 14.7986C18.5357 14.6143 18.6557 14.4043 18.7285 14.1771C18.85 13.8357 18.8629 13.465 18.7654 13.1159C18.668 12.7668 18.465 12.4564 18.1842 12.2271L17.4214 12.9943C17.85 13.5943 17.8071 13.8857 17.1985 14.3786H17.2028ZM12.1714 5.83285C12.3171 5.96999 12.4585 6.08999 12.5871 6.21857C12.7157 6.34714 12.8357 6.48428 12.9557 6.61285C13.53 6.11142 13.9114 6.17142 14.3914 6.79285L14.2328 6.96428L12.6685 8.52857C12.1928 8.99999 11.8971 9.01714 11.4171 8.61857L10.6114 9.39428C10.7734 9.57751 10.97 9.7269 11.1899 9.83389C11.4098 9.94087 11.6487 10.0033 11.8929 10.0177C12.137 10.032 12.3816 9.99794 12.6125 9.91743C12.8435 9.83693 13.0562 9.71157 13.2385 9.54857L13.3028 9.48857C14.1728 8.63142 15.0342 7.75714 15.9 6.89142L16.0028 6.77142L14.9228 5.69999C14.74 5.51567 14.5206 5.37175 14.2787 5.27752C14.0368 5.1833 13.7778 5.14088 13.5185 5.153C13.2592 5.16512 13.0053 5.2315 12.7733 5.34787C12.5412 5.46424 12.3362 5.628 12.1714 5.82857V5.83285ZM13.3714 14.5929C13.2147 14.4113 13.0237 14.2624 12.8095 14.1546C12.5952 14.0469 12.3618 13.9824 12.1226 13.9649C11.8834 13.9474 11.6431 13.9772 11.4154 14.0526C11.1877 14.128 10.9771 14.2475 10.7957 14.4043L10.7742 14.4214C10.2171 14.9357 9.68995 15.4929 9.14567 16.0286L8.00995 17.16C8.4171 17.5843 8.79424 18.0086 9.20995 18.3943C9.4132 18.5733 9.65534 18.7025 9.91719 18.7717C10.179 18.8408 10.4534 18.8481 10.7185 18.7929C11.1428 18.7286 11.5328 18.51 11.8028 18.1757L11.1042 17.49L11.0185 17.4086C10.4185 17.8371 10.0071 17.7643 9.62138 17.1686C10.2471 16.5386 10.8685 15.9043 11.5028 15.2829C11.5878 15.1957 11.6953 15.1339 11.8134 15.1044C11.9314 15.0748 12.0554 15.0788 12.1714 15.1157C12.3257 15.18 12.4714 15.2614 12.6042 15.36L13.3757 14.5886L13.3714 14.5929ZM14.4 17.1686C13.8942 17.8414 13.3971 17.8629 12.8742 17.2929C12.4414 16.8214 11.9742 16.38 11.52 15.93L11.3828 15.8143L10.6585 16.53C11.2671 17.1729 11.85 17.8586 12.51 18.4629C12.7994 18.7039 13.161 18.8415 13.5375 18.854C13.9139 18.8664 14.2838 18.7529 14.5885 18.5314C15.078 18.1263 15.5458 17.6957 15.99 17.2414L14.58 15.8443L13.8085 16.6243L14.4042 17.1686H14.4ZM13.3714 7.40571C12.7714 6.80142 12.1928 6.17142 11.5628 5.59285C11.2577 5.31959 10.8668 5.16147 10.4576 5.14582C10.0483 5.13017 9.64642 5.25797 9.32138 5.50714C8.84567 5.87999 8.42995 6.34285 8.01852 6.73285L9.42424 8.13428L10.1957 7.36285C10.1057 7.27714 10.0028 7.17428 9.89138 7.08428C9.77995 6.98999 9.66424 6.91285 9.51424 6.80142C9.65995 6.68142 9.73281 6.62999 9.7971 6.56571C9.86797 6.47785 9.95777 6.40712 10.0598 6.3588C10.1618 6.31048 10.2734 6.28581 10.3863 6.28663C10.4992 6.28746 10.6104 6.31375 10.7117 6.36356C10.813 6.41336 10.9018 6.48539 10.9714 6.57428L11.5157 7.11857L12.5828 8.18999L13.3714 7.40571ZM16.53 13.3843C17.1857 12.75 17.8457 12.1843 18.42 11.5414C18.7044 11.2176 18.8605 10.8008 18.8589 10.3698C18.8574 9.93877 18.6982 9.5232 18.4114 9.20142C18.0342 8.78142 17.6057 8.40428 17.2285 8.03571L15.8657 9.40714L16.6371 10.2129L17.2285 9.56999C17.3014 9.65142 17.3571 9.72857 17.4257 9.79714C17.5414 9.88491 17.6285 10.0051 17.6758 10.1425C17.7231 10.2798 17.7285 10.4281 17.6914 10.5686C17.6502 10.7287 17.5567 10.8705 17.4257 10.9714L16.9028 11.4986L15.7928 12.6043L15.8785 12.7157C16.1057 12.9429 16.3242 13.1743 16.53 13.3886V13.3843ZM6.78853 14.43C6.70281 14.3314 6.65567 14.2671 6.59995 14.2157C6.45169 14.1108 6.34651 13.9557 6.30395 13.7792C6.26139 13.6026 6.28433 13.4166 6.36853 13.2557C6.41995 13.1486 6.4971 13.0586 6.59567 12.9857L7.76995 11.8157C7.91138 11.6743 8.06995 11.5371 8.18138 11.43L7.36281 10.6157L5.70853 12.2786C5.39892 12.5701 5.2037 12.9627 5.15812 13.3855C5.11254 13.8083 5.21959 14.2335 5.45995 14.5843C5.85835 15.0729 6.28629 15.5366 6.74138 15.9729L8.12567 14.5886L7.34567 13.8129L6.78853 14.43ZM10.1228 14.6271L7.77424 12.2786L7.0371 12.99L9.40281 15.3514L10.1228 14.6271ZM12.96 16.9629L15.3471 14.5757L14.6271 13.8471L12.2357 16.2343L12.96 16.9629ZM11.0314 7.04142L8.63138 9.44142L9.33853 10.1529L11.7428 7.75285L11.0357 7.04142H11.0314ZM13.8557 9.37285L16.2128 11.7214L16.9328 10.9971L14.5757 8.64428L13.8557 9.37285Z" fill="white"/>
</g>
<defs>
<clipPath id="clip0_31_18804">
<rect width="24" height="24" fill="white"/>
</clipPath>
</defs>
</svg>

<svg xmlns="http://www.w3.org/2000/svg" width="24" height="24" fill="none" viewBox="0 0 24 24"><g clip-path="url(#a)"><path fill="#008CFF" d="M0 0h24v24H0z"/><path fill="#fff" d="M9.377 13.389a1.79 1.79 0 0 0 .579-1.912 1.8 1.8 0 0 0-.326-.617l-.064-.077c-.776-.827-1.599-1.616-2.4-2.422L6.84 8.01q-.675.588-1.286 1.243a1.8 1.8 0 0 0 .227 2.52l.78-.772c-.42-.57-.355-.977.236-1.388l1.972 1.963a.6.6 0 0 1 .06.124.776.776 0 0 1-.215.909zm7.826.99c-.643-.643-1.299-1.282-1.929-1.938a.61.61 0 0 1-.158-.428c.043-.232.115-.45.205-.66l-.75-.746-.072.069a1.864 1.864 0 0 0 .004 2.635l.077.073 2.486 2.482a1 1 0 0 0 .128.107c.403-.399.815-.772 1.187-1.174.155-.185.275-.395.348-.622a1.76 1.76 0 0 0-.545-1.95l-.763.767c.429.6.386.892-.223 1.385zM12.17 5.833c.146.137.288.257.416.386.129.128.249.265.369.394.574-.502.955-.442 1.435.18l-.158.171-1.565 1.565c-.475.471-.77.488-1.25.09l-.807.775a1.856 1.856 0 0 0 2.627.155l.065-.06c.87-.858 1.731-1.732 2.597-2.598l.103-.12-1.08-1.071a1.856 1.856 0 0 0-2.752.129zm1.2 8.76a1.827 1.827 0 0 0-2.575-.189l-.022.017c-.557.515-1.084 1.072-1.628 1.608L8.01 17.16c.407.424.784.849 1.2 1.234a1.74 1.74 0 0 0 1.508.399 1.73 1.73 0 0 0 1.085-.617l-.699-.686-.085-.081c-.6.428-1.012.355-1.398-.24.626-.63 1.247-1.265 1.882-1.886a.66.66 0 0 1 .668-.167q.233.096.433.244l.772-.771zm1.029 2.576c-.506.672-1.003.694-1.526.124-.433-.472-.9-.913-1.354-1.363l-.137-.116-.724.716c.608.643 1.191 1.329 1.851 1.933a1.69 1.69 0 0 0 2.079.068q.734-.608 1.401-1.29l-1.41-1.397-.771.78.595.545zm-1.029-9.763c-.6-.605-1.178-1.235-1.808-1.813a1.76 1.76 0 0 0-2.242-.086c-.475.373-.891.836-1.302 1.226l1.405 1.401.772-.771c-.09-.086-.193-.189-.305-.279-.111-.094-.227-.171-.377-.283.146-.12.219-.171.283-.235a.75.75 0 0 1 1.174.008l.545.545 1.067 1.071zm3.159 5.978c.656-.634 1.316-1.2 1.89-1.843a1.766 1.766 0 0 0-.009-2.34c-.377-.42-.805-.797-1.183-1.165l-1.362 1.371.771.806.591-.643c.073.081.13.159.198.227a.73.73 0 0 1 .265.772.74.74 0 0 1-.265.402l-.523.528-1.11 1.105.086.112c.227.227.445.458.651.673zM6.789 14.43c-.086-.099-.133-.163-.189-.214a.75.75 0 0 1-.231-.96.7.7 0 0 1 .227-.27l1.174-1.17c.141-.142.3-.279.411-.386l-.818-.814-1.654 1.663a1.78 1.78 0 0 0-.249 2.305q.598.734 1.281 1.389l1.385-1.384-.78-.776zm3.334.197L7.774 12.28l-.737.711 2.366 2.361zm2.837 2.336 2.387-2.387-.72-.729-2.391 2.387zM11.031 7.04l-2.4 2.4.708.712 2.404-2.4-.707-.712zm2.825 2.332 2.357 2.348.72-.724-2.357-2.353z"/></g><defs><clipPath id="a"><path fill="#fff" d="M0 0h24v24H0z"/></clipPath></defs></svg>
